X:1
T:Able to Save
T:Able to Save
T:Alice E. Sumner
T:Richard Venting, 1907
T:Public Domain CCourtesy of the Cyber Hymnal™
C:Alice E. Sumner
Z:Public Domain
Z:CCourtesy of the Cyber Hymnal™
%%score ( 1 2 ) ( 3 4 )
L:1/8
Q:1/4=98
M:6/8
K:A
V:1 treble 
V:2 treble 
V:3 bass 
V:4 bass 
V:1
 ([CE][DF])[^B,^D] ([CE][Ec])[EA] | (BA)[DF] [CE]3 | (EG)[DF] [DE][DG][DF] | ([CE]2 [B,D]) [A,C]3 | %4
w: 1.~Look * to Je- * sus|on * the tree,|He * is a- ble to|save * you;|
w: 2.~O * His love * will|melt * your heart,|He * is a- ble to|save * you;|
w: 3.~Do * not let * Him|plead * in vain,|He * is a- ble to|save * you.|
w: 4.~Let * Him en- * ter|now * your heart,|He * is a- ble to|save * you;|
 ([A,C][B,D])[^B,^D] ([CE][Ec])[EA] | ([DB][FA])[DF] [CE]3 | [Ee]2 [Ee] [Ec][Ec][EA] | %7
w: Dy- * ing there * for|you * and me,|He is will- ing to|
w: If * from sin * you|will * de- part,|He is will- ing to|
w: Let * His blood * wash|ev- * ery stain,|He is will- ing to|
w: If * you wait * He|will * de- part,|Now He’s wait- ing to|
 [DB]3 [CA]3 ||"^Refrain" [Ec]>[^D^B][Ec] (A[G=B])[=Gc] | [Fd][FA][=FB] [Ec]3 | %10
w: save you.|||
w: save you.|A- ble to save * a|poor sin- ner lost,|
w: save you.|||
w: save you.|||
 [Ec]>[Ec][Ec] [Ee][Ed][Ec] | (cB)[=DF] B3 | [Ec]>[D^B][Ec] ([CA][D=B])[Ec] | [Ge]>[Fd][Fd] [Fd]3 | %14
w: ||||
w: Will- ing to save at a|fear- * ful cost;|A- ble to save: * Come,|trust in His power;|
w: ||||
w: ||||
 [=CA][CG][CF] ([^CE][Ec])[CA] | (B>A)[DG] [CA]3 |] %16
w: ||
w: Will- ing to save * this|ve- * ry hour.|
w: ||
w: ||
V:2
 x6 | D2 x4 | D2 x4 | x6 | x6 | x6 | x6 | x6 || x3 A x2 | x6 | x6 | ^D2 (E^D=D) x | x6 | x6 | x6 | %15
 D2 x4 |] %16
V:3
 (A,G,)[A,,F,] [A,,E,]2 [C,A,] | [D,F,]2 [D,A,] [A,,A,]3 | (G,B,)[E,A,] [E,G,][E,B,][E,A,] | %3
 (G,F,G,) [A,,A,]3 | (A,G,)[A,,F,] [A,,E,]2 [A,,=G,] | [D,F,]2 [D,A,] [A,,A,]3 | %6
 [A,C]2 [A,C] A,A,[C,A,] | [E,G,]3 [A,,A,]3 || A,>A,A, (CD)[A,E] | [D,D][D,D][D,A,] [A,,A,]3 | %10
 [A,,A,]>[A,,A,][A,,A,] [C,A,][B,,G,][A,,A,] | [B,,A,]2 [A,B,] ([G,B,][F,A,][E,G,]) | %12
 [A,,A,]>[A,,A,][A,,A,] [A,,E,]2 [A,,A,] | [D,A,]>[D,A,][D,A,] [D,A,]3 | %14
 [^D,F,][D,G,][D,A,] (A,E,)[E,A,] | (G,>A,)[E,B,] [A,,A,]3 |] %16
V:4
 A,,2 x4 | x6 | E,2 x4 | E,3 x3 | A,,2 x4 | x6 | x3 A,A, x | x6 || A,>A,A, A,2 x | x6 | x6 | x6 | %12
 x6 | x6 | x3 E,2 x | E,2 x4 |] %16

